X:34
T:Brig y Brwyn
M:2/4
L:1/8
Q:300
C:Trad. arr. Jason Lawday
R:Plin
N:Dance arrangement
K:G
EB BG | A2 B2 | FA AF | G2 F2 :|| EE EG | FE F2 | EE EG |
FE F2 | EB BA | GF E2 | FE F/2E/2D | E2- E2 ||
